X:1
T:Title
%%score ( 1 2 ) ( 3 4 )
L:1/8
Q:1/4=90
M:3/4
K:Eb
V:1 treble nm="Violin, Soprano"
V:2 treble 
V:3 bass nm="Violin, Bass"
V:4 bass 
V:1
 z2 z2 [EG]>[B,F] | [B,E]3 [B,E] (3[C-E][CF][EG] | [GB]2 [EG]2 [FA]>[EG] | %3
w: 1.~God~ is~|sweep ing~ through~ * the~|na tions~ With~ an~|
 [DF]3 [DF] (3[DB][FA][DF] | [B,E]4 [EG]>[B,F] | [B,E]3 [B,E] (3[C-E][CF][EG] | %6
w: aw ful,~ search * ing~|eye;~ Eve ry~|spot~ of~ im * per|
 [GB]2 [EG]2 [DF]>[EG] | [DA]3 [DF] (3[DB][B,D][B,F] |[M:4/4] [B,E]4 [B,E]>[B,F] [EG]2- | %9
w: fec tion~ Much~ be~|purged,~ or~ hope~ * must~|die.~ * * *|
 [EG][EF] E2 [EG]2 [GB]2- | [GB]2 [EG]2 [GB]>[Ge] [Ad]2- | [Ad][AB] [Ad]2 [Af]2 e2- | %12
w: |||
 e2 B2 [GB]>[GB] [Ac]2- | [Ac][ce] [Bd]2 [Ac]2 [GB]2- | [GB]2 [Ge]2 [EF]>[EG] [FA]2- | %15
w: |||
 [FA][DF] [DB]2 B,-[B,F] [B,E]2- | [B,E]4 z4 |] %17
w: ||
V:2
 x6 | x6 | x6 | x6 | x6 | x6 | x6 | x6 |[M:4/4] x8 | x8 | x8 | z4 z2 G2- | G4 z4 | x8 | x8 | %15
 z4 .D2 z2 | x8 |] %17
V:3
 z2 z2 [E,B,]>[E,A,] | [E,G,]3 [E,G,] (3[E,-G,][E,A,][E,B,] | [E,E]2 [E,B,]2 [D,B,]>[E,B,] | %3
 [B,,B,]3 [B,,B,] (3:2:2[B,,B,]2 [B,,A,] | [E,G,]4 [E,B,]>[E,A,] | %5
 [E,G,]3 [E,G,] (3[E,-G,][E,A,][E,B,] | [E,E]2 [E,B,]2 [F,B,]>[E,B,] | %7
 [B,,B,]3 [B,,B,] (3:2:2[B,,B,]2 [B,,A,] |[M:4/4] z8 | z8 | z8 | z4 z2 B,2- | B,2 z2 z4 | z8 | z8 | %15
 z8 | z8 |] %17
V:4
 x6 | x6 | x6 | x6 | x6 | x6 | x6 | x6 |[M:4/4] [E,G,]4 [E,G,]>[E,A,] [E,B,]2- | %9
 [E,B,][E,A,] [E,G,]2 [E,B,]2 [E,E]2- | [E,E]2 [E,B,]2 [E,B,]>[E,B,] [B,,B,]2- | %11
 [B,,B,][B,,B,] [B,,B,]2 [B,,B,]2 E,2- | E,2- [E,E]2 [E,E]>[E,E] [A,E]2- | %13
 [A,E][A,E] [A,E]2 [A,E]2 [E,E]2- | [E,E]2 [E,B,]2 [C,=A,]>[=B,,A,] [_B,,B,]2- | %15
 [B,,B,][B,,B,] [B,,B,]2 [B,,A,]2 [E,G,]2- | [E,G,]4 z4 |] %17

